src/dsmComponents/Icons/globe-16px.svg

<svg width="16" height="16" xmlns="http://www.w3.org/2000/svg" xmlns:xlink="http://www.w3.org/1999/xlink"><defs><path d="M8 0C3.6 0 0 3.6 0 8s3.6 8 8 8 8-3.6 8-8-3.6-8-8-8zm5.9 7H12c-.1-1.5-.4-2.9-.8-4.1 1.4.9 2.4 2.4 2.7 4.1zM8 14c-.6 0-1.8-1.9-2-5h4c-.2 3.1-1.4 5-2 5zM6 7c.2-3.1 1.3-5 2-5s1.8 1.9 2 5H6zM4.9 2.9C4.4 4.1 4.1 5.5 4 7H2.1c.3-1.7 1.3-3.2 2.8-4.1zM2.1 9H4c.1 1.5.4 2.9.8 4.1-1.4-.9-2.4-2.4-2.7-4.1zm9 4.1c.5-1.2.7-2.6.8-4.1h1.9c-.2 1.7-1.2 3.2-2.7 4.1z" id="globe-16px_svg__a"/></defs><use fill="#737373" xlink:href="#globe-16px_svg__a" fill-rule="evenodd"/></svg>

<?xml version="1.0" encoding="UTF-8"?>
<svg width="16px" height="16px" viewBox="0 0 16 16" version="1.1" xmlns="http://www.w3.org/2000/svg" xmlns:xlink="http://www.w3.org/1999/xlink">
    <!-- Generator: Sketch 59.1 (86144) - https://sketch.com -->
    <title>globe-16px</title>
    <desc>Created with Sketch.</desc>
    <defs>
        <path d="M8,0 C3.6,0 0,3.6 0,8 C0,12.4 3.6,16 8,16 C12.4,16 16,12.4 16,8 C16,3.6 12.4,0 8,0 Z M13.9,7 L12,7 C11.9,5.5 11.6,4.1 11.2,2.9 C12.6,3.8 13.6,5.3 13.9,7 Z M8,14 C7.4,14 6.2,12.1 6,9 L10,9 C9.8,12.1 8.6,14 8,14 Z M6,7 C6.2,3.9 7.3,2 8,2 C8.7,2 9.8,3.9 10,7 L6,7 Z M4.9,2.9 C4.4,4.1 4.1,5.5 4,7 L2.1,7 C2.4,5.3 3.4,3.8 4.9,2.9 Z M2.1,9 L4,9 C4.1,10.5 4.4,11.9 4.8,13.1 C3.4,12.2 2.4,10.7 2.1,9 Z M11.1,13.1 C11.6,11.9 11.8,10.5 11.9,9 L13.8,9 C13.6,10.7 12.6,12.2 11.1,13.1 Z" id="path-1"></path>
    </defs>
    <g id="Final" stroke="none" stroke-width="1" fill="none" fill-rule="evenodd">
        <g id="All-Nucleo-Icons" transform="translate(-319.000000, -3484.000000)">
            <g id="Solo/Nucleo/16px/globe" transform="translate(315.000000, 3480.000000)">
                <g id="globe" transform="translate(4.000000, 4.000000)">
                    <g id="Colour/Default-Colour">
                        <mask id="mask-2" fill="white">
                            <use xlink:href="#path-1"></use>
                        </mask>
                        <g id="Mask" fill-rule="nonzero"></g>
                        <g id="colour/neutral/chia" mask="url(#mask-2)" fill="#737373">
                            <g transform="translate(-24.000000, -24.000000)" id="Colour">
                                <rect x="0" y="0" width="64" height="64"></rect>
                            </g>
                        </g>
                    </g>
                </g>
            </g>
        </g>
    </g>
</svg>
